X:1
T:Title
%%score [ 1 2 3 4 ]
L:1/8
Q:1/4=120
M:4/4
K:D
V:1 treble nm="Sopran"
V:2 treble nm="Alt"
V:3 treble-8 nm="Tenor"
V:4 bass nm="Bass"
V:1
"^Jagdlied""^op. 59, Nr. 6""^Joseph von Eichendorff""^Allegro molto quasi Presto" z8 | z8 | %2
w: ||
 z2!p! B2 (Bc)B"^Felix Mendelssohn Bartholdy"c |[M:4/4] d2 BB (Bc)de |!f! f3 f f2 ed | %5
w: Durch schwan- * ken- de|wip- fel Schießt gol- * de- ner|Strahl, Tief un- ter den|
 d2 cB B2 AG | F8- | F8 | z2 F2 F2"^dim." Bd | c2 FF (FB)dB |!pp! !fermata!f8 | z8 | z8 | %13
w: Gip- feln Das neb- li- ge|Thal,||Tief un- ter den|Gip- feln Das neb- * li- ge|Thal.|||
!f! F4 B2 Bc | d2 Bc d2 e2 |!ff! f3 d d2 Bd | (dA)Ad (dB)Bd | d2 A2 d3 d | f4 d3 d | f8 | %20
w: Fern hallt es vom|Schlos- se, Das Wald- horn|ruft, Es wie- hern die|Ros- * se, Es wie- * hern die|Ros- se, In die|Luft, in die|Luft,|
 z2!f! f2 f2 ed | d4 d2 z2 | z2 dd d2 cB | B4 z2!f! B^A | B4 c3 c | d4 z2!ff! de | f4 c3 d | B8 || %28
w: es wie- hern die|Ros- se,|In die Luft, in die|Luft, in die|Luft, in die|Luft, in die|Luft, in die|Luft!|
 z8 | z8 | z2!p! B2"^cresc." (Bc)Bc | d2 BB (Bc) (de) |!f! f3 f f2 ed | d2 cB B2 AG | F8- | F8 | %36
w: ||Bald Län- * der und|Se- en, bald Wol ­ ken *|zug Tief schim- mernd zu|se- hen In schwin- deln- dem|Flug.||
 z2 F2 F2"^dim." Bd | c2 FF (FB) (dB) |!pp! !fermata!f8 | z8 | z8 |!f! F4 B2 (Bc) | d2 Bc d2 ee | %43
w: Tief schim- mernd zu|se- hen In schwin- * deln- dem|Flug,|||Bald Dun- kel *|wie- der Hüllt Rei- ter und|
 f3!ff! d d2 (Bd) | (dA)Ad (dB) (Bd) | d4 d3 d | f4 d3 d | f8 | z2!f! f2 f2 (ed) | d4 d2 z2 | %50
w: Ross, O Lieb', o *|Lie- * be So lass * mich *|los, lass' mich|los, lass mich|los|O Lieb', o *|Lie- be|
 z2 d2 d2 (cB) | B4 z2!f! B^A | B4 c3 c | d4 z2!ff! de | f4 c3 d | B8 || z8 | z8 | %58
w: So lass mich *|los, lass mich|los, lass' mich|los, lass mich|los, lass mich|los!|||
 z2!pp! BB (Bc)Bc | d2 BB (Bc) (de) | f3 f f2 ed | d2 cB B2"^dim." AG | F8- | F8- | %64
w: im- mer wei- * ter und|wei- ter die Klän * ge *|ziehn, Durch Wäl- der und|Hei- den wo- hin, ach wo-|hin?||
 F2 z"^ritard." F F2 Bd | c2 FF (FB)dB |[K:B] !fermata!d'7!pp! d |"^a tempo" (F3 B) B3 c | d4 B4 | %69
w: * Durch Wäl- der und|Hei- den, wo- hin * ach, wo-|hin? Er-|quick * li- che|Fri- sche|
 d4{f} (3e2 d2 e2 | f8 |"^cresc." f4 (3d2 c2 B2 | B4 G4 | d4 c3 B | (B4 A3)!f! F | F3 B B3 c | %76
w: Süß- schau- ri- ge|Lust!|Hoch flat- tern die|Bü- sche,|Frei schlägt die|Brust. * Er-|quick- * li- che|
 d4 B4 | d4 (3d2 c2 B2 | g8 |!ff! f4 (3d2 c2 B2 | B4 (e2 c2) | B4 d3 c | B6!p! F2 | (F2 A2) c3 B | %84
w: Fri- sche|Süß- schau- ri- ge|Lust!|Hoch flat- tern die|Bü- sche, *|Frei schlägt die|Brust. Er-|quick- * li- che|
 B4 A2 z2 |"^ritard." (F2 A2) (3c2 c2 B2 | (B4 !fermata!A3)"^a tempo"!f! F | (F3 B) B3 c | d4 B4 | %89
w: Fri- sche|Süß- * schau- ri- ge|Lust! * Er-|quick * li- che|Fri- sche|
 d4 (3d2 c2 B2 | g8 |!ff! f4 (3d2 c2 B2 | B4 (e2 c2) | B4 d3 c | B4 z4 | z8 | z4!p!"^dim." B4 | %97
w: Süß- schau- ri- ge|Lust!|Hoch flat- tern die|Bü- sche, *|Frei schlägt die|Brust.||Und|
 d4 c2 B2 | f4 B2 B2 | (d4 c2) B2 |"^cresc." f8- | f4 z4 | z4 B4 | d4 c2 B2 | g8 | c4 z4 | %106
w: wei- ter und|wei- ter Die|Klän- * ge|ziehn,||Und|wei- ter und|wei-|ter|
!ff! f4 (3d2 c2 B2 | B4 (e2 c2) | B4 d3 c | !fermata!B8 |] %110
w: Hoch flat- tern die|Bü- sche *|Frei schlägt die|Brust.|
V:2
 z2!pp! F2 G2 EG | F2 DF GEEG | F3 F G2"^cresc." EG |[M:4/4] F2 DF (GE)EG |!f! F3 F B2 BB | %5
w: Durch schwan- ken- de|Wip- fel Schießt gol- * den- er|Strahl, Durch schwan- ken- de|wip- fel Schießt gol- * de- ner|Strahl, Tief un- ter den|
 B2 ^AB F2 ED | C4 D4 | E4 D2 D2 | (C4"^dim." F4 | E4 D4 |!pp! !fermata!C8) | z8 | z8 | %13
w: Gip- feln Das neb- li- ge|Thal, Das|neb- li- ge|Thal *|||||
!f! F4 D2 DF | B2 DF B2 c2 |!ff! d3 A B2 GB | (AF)FA (BG)GB | A2 A2 (_BG) (GB) | A4 (_BG) (GB) | %19
w: Fern hallt es vom|Schlos- se, Das Wald- horn|ruft, Es wie- hern die|Ros- * se, Es wie- * hern die|Ros- se, In * die *|Luft, in * die *|
 A2!f! A2 A2 GF | F4 F2 z2 | z2 FF F2 ED | D8- | D4 z2!f! GG | G4 B3 B | B4 z2!ff! BB | B4 ^A3 A | %27
w: Luft, es wie- hern die|Ros- se,|In die Luft, in die|Luft,|* in die|Luft, in die|Luft, in die|Luft, in die|
 B8 || z2!pp! F2 G2 EG | F2 DF (GE) (EG) | F3 F"^cresc." G2 EG | F2 DF (GE) (EG) |!f! F3 F B2 BB | %33
w: Luft!|Bald Län- der und|Se- en, bald Wol- * ken- *|zug, Bald Län- der und|Se- en, bald Wol- * ken *|zug Tief schim- mernd zu|
 B2 ^AB F2 ED | C4 D4 | E4 D2 D2 | (C4"^dim." F4 | E4 D4 |!pp! !fermata!C8) | z8 | z8 | %41
w: se- hen In schwin- deln- dem|Flug. In|schwin- deln- dem|Flug, *|||||
!f! F4 D2 (DF) | B2 DF B2 cc | d3!ff! A B2 (GB) | (AF)FA (BG) (GB) | A4 (_BG) (GB) | %46
w: Bald Dun- kel *|wie- der Hüllt Rei- ter und|Ross, O Lieb', o *|Lie- * be So lass * mich *|los, lass * mich *|
 A4 (_BG) (GB) | A2!f! A2 A2 (GF) | F4 F2 z2 | z2 F2 F2 (ED) | D8- | D4 z2!f! GG | G4 B3 B | %53
w: los, lass * mich *|los, O Lieb', o *|Lie- be|So lass mich *|los,|* lass mich|los, lass mich|
 B4 z2!ff! BB | B4 ^A3 A | B8 || z2!pp! FF G2 EG | F2 DF (GE) (EG) | F4 G2 EG | F2 DF (GE) (EG) | %60
w: los, lass mich|los, lass mich|los!|Im- mer wei- ter und|wei- ter die Klän * ge *|ziehn, wei- ter und|wei- ter die Klän * ge *|
 F3 F B2 BB | B2 ^AB F2"^dim." ED | C4 D4 | E4 D3 D | (C4 F4 | E4 D4 |[K:B] !fermata!A7)!pp! ^B | %67
w: ziehn, Durch Wäl- der und|Hei- den wo- hin, ach wo-|hin? wo-|hin, ach wo-|hin? *||* Er-|
 (D3 F) F3 B | B4 F4 | F4 (3=G2 F2 G2 | F8 |"^cresc." F4 (3F2 E2 D2 | D4 D4 | ^E4 E3 E | %74
w: quick * li- che|Fri- sche|Süß- schau- ri- ge|Lust!|Hoch flat- tern die|Bü- sche,|Frei schlägt die|
 F7!f! !courtesy!=E | D3 F F3 B | B4 F4 | =A4 (3A2 A2 A2 | G8 |!ff! B4 (3F2 E2 D2 | (D2 G4) G2 | %81
w: Brust. Er-|quick- * li- che|Fri- sche|Süß- schau- ri- ge|Lust!|Hoch flat- tern die|Bü- * sche,|
 F4 A3 A | B6!p! F2 | F8- | F4 F2 =G2 | F8 | !fermata!E7!f! E | (D3 F) F3 B | B4 F4 | %89
w: Frei schlägt die|Brust. Er-|quick-|* li- che|Fri-|sche Er-|quick * li- che|Fri- sche|
 =A4 (3A2 A2 A2 | G8 |!ff! B4 (3F2 E2 D2 | (D2 G4) G2 | F4 A3 A | B3!pp! F =G2 EG | %95
w: Süß- schau- ri- ge|Lust!|Hoch flat- tern die|Bü- * sche,|Frei schlägt die|Brust. Und wei- ter und|
 F2 DF (=GE) (EG) | F4"^dim." =G2 EG | F2 DF (=GE) (EG) | F4 =G2 EG | (F4 =G4) | %100
w: wei- ter die Klän * ge *|ziehn, Wei- ter und|wei- ter Die Klän * ge *|ziehn, wei- ter und|wei- *|
 F3!f!"^cresc." B B2 B2 | B8- | B8- | B3 B B2 B2 | B8- | B4 z4 |!ff! B4 (3F2 E2 D2 | (D2 G4) G2 | %108
w: ter Die Klän- ge|ziehn,||* Die Klän- ge|ziehn||Hoch flat- tern die|Bü- * sche|
 F4 A3 F | !fermata!F8 |] %110
w: Frei schlägt die|Brust.|
V:3
 z2!pp! d2 e2 ce | d2 Bd (ec)ce | d3 d e2"^cresc." ee |[M:4/4] d2 dd (eB)Be |!f! d3 d g2 gg | %5
w: Durch schwan- ken- de|Wip- fel Schießt gol- * den- er|Strahl, Durch schwan- ken- de|wip- fel Schießt gol- * de- ner|Strahl, Tief un- ter den|
 f2 ed d2 cB | ^A4 B4 | ^A4 B2 B2 | (^A4"^dim." d4 | ^A4 B4 |!pp! !fermata!c8) |!f! F4 B2 Bc | %12
w: Gip- feln Das neb- li- ge|Thal, Das|neb- li- ge|Thal *|||Fern hallt es vom|
 d2 Bc d2 e2 |!f! f8 | z2 z!f! f f2 g2 |!ff! f3 f g2 dg | (fd)df (gd)dg | f2 f2 g3 g | d4 g3 g | %19
w: Schlos- se, Das Wald- horn|ruft,|Das Wald- horn|ruft, Es wie- hern die|Ros- * se, Es wie- * hern die|Ros- se, In die|Luft, in die|
 d2!f! f2 f2 ed | d4 d2 z2 | z2 dd d2 cB | B8- | B4 z2!f! dc | d4 e3 e | f4 z2!ff! fe | d4 e3 f | %27
w: Luft, es wie- hern die|Ros- se,|In die Luft, in die|Luft,|* in die|Luft, in die|Luft, in die|Luft, in die|
 d8 || z2!pp! d2 e2 ce | d2 Bd (ec) (ce) | d3 d"^cresc." e2 ee | d2 dd (eB) (Be) |!f! d3 d g2 gg | %33
w: Luft!|Bald Län- der und|Se- en, bald Wol- * ken- *|zug, Bald Län- der und|Se- en, bald Wol- * ken *|zug Tief schim- mernd zu|
 f2 ed d2 cB | ^A4 B4 | ^A4 B2 B2 | (^A4"^dim." d4 | ^A4 B4 |!pp! !fermata!c8) |!f! F4 B2 (Bc) | %40
w: se- hen In schwin- deln- dem|Flug. In|schwin- deln- dem|Flug, *|||Bald Dun- kel *|
 d2 Bc d2 ee |!f! f8 | z2 z f f2 gg | f3!ff! f g2 (dg) | (fd)df (gd) (dg) | f4 g3 g | d4 g3 g | %47
w: wie- der Hüllt Rei- ter und|Roß,|Hüllt Rei- ter und|Ross, O Lieb', o *|Lie- * be So lass * mich *|los, lass mich|los, lass mich|
 d2!f! f2 f2 (ed) | d4 d2 z2 | z2 d2 d2 (cB) | B8- | B4 z2!f! dc | d4 e3 e | f4 z2!ff! fe | %54
w: los, O Lieb', o *|Lie- be|So lass mich *|los,|* lass mich|los, lass mich|los, lass mich|
 d4 e3 f | d8 || z2!pp! dd e2 ce | d2 Bd (ec) (ce) | d4 e2 ee | d2 dd (eB) (Be) | d3 d g2 gg | %61
w: los, lass mich|los!|Im- mer wei- ter und|wei- ter die Klän * ge *|ziehn, wei- ter und|wei- ter die Klän * ge *|ziehn, Durch Wäl- der und|
 f2 ed d2"^dim." cB | ^A4 B4 | ^A4 B3 B | (^A4 d4 | ^A4 B4 |[K:B] !fermata!a7)!pp! g | %67
w: Hei- den wo- hin, ach wo-|hin? wo-|hin, ach wo-|hin? *||* Er-|
 (B3 d) d3 e | f4 d4 | B4 (3B2 B2 B2 | d8 |"^cresc." B4 (3A2 A2 A2 | B4 B4 | B4 B3 B | %74
w: quick * li- che|Fri- sche|Süß- schau- ri- ge|Lust!|Hoch flat- tern die|Bü- sche,|Frei schlägt die|
 (d4 c3)!f! A | B3 d d3 e | f4 d4 | B4 (3B2 B2 B2 | e8 |!ff! d4 (3A2 A2 A2 | B4 (B2 e2) | d4 f3 e | %82
w: Brust. * Er-|quick- * li- che|Fri- sche|Süß- schau- ri- ge|Lust!|Hoch flat- tern die|Bü- sche, *|Frei schlägt die|
 d6!p! A2 | (A2 c2) e3 =d | c4 c2 B2 | (A2 c2) e2 =d2 | !fermata!c7!f! A | (B3 !courtesy!^d) d3 e | %88
w: Brust. Er-|quick- * li- che|Fri- sche Süß-|schau- * ri- ge|Lust! Er-|quick * li- che|
 f4 d4 | B4 (3B2 B2 B2 | e8 |!ff! d4 (3A2 A2 A2 | B4 (B2 e2) | d4 f3 e | d3!pp! d e2 ce | %95
w: Fri- sche|Süß- schau- ri- ge|Lust!|Hoch flat- tern die|Bü- sche, *|Frei schlägt die|Brust. Und wei- ter und|
 d2 Bd (ec) (ce) | d4"^dim." e2 ee | d2 dd e2 e2 | d4 z4 | (B4 e4) | d8- | d3!f!"^cresc." d d2 d2 | %102
w: wei- ter die Klän * ge *|ziehn, Wei- ter und|wei- ter die Klän- ge|ziehn,|wei- *|ter|* Die Klän- ge|
 d8- | d3 d d2 d2 | c8- | c4 z4 |!ff! d4 (3A2 A2 A2 | B4 (B2 e2) | d4 f3 e | !fermata!d8 |] %110
w: ziehn,|* Die Klän- ge|ziehn||Hoch flat- tern die|Bü- sche *|Frei schlägt die|Brust.|
V:4
 z2!pp! B,2 B,2 B,B, | B,2 B,B, B,2 B,B, | B,3 B, B,2"^cresc." B,B, |[M:4/4] B,2 B,B, B,2 B,B, | %4
w: Durch schwan- ken- de|Wip- fel Schießt gol- den- er|Strahl, Durch schwan- ken- de|wip- fel Schießt gol- de- ner|
 B,4 z4 | z8 | z2!f! F,2 F,2 B,D | C2 F,F, (F,B,)DB, |"^dim." F,8- | F,8- |!pp! !fermata!F,8 | %11
w: Strahl,||Tief un- ter den|Gip- feln Das neb- * li- ge|Thal|||
!f!"^Copyright © 2008 by the Choral Public Domain Library (http://www.cpdl.org).\nEdition may be freely distributed, duplicated, performed, or recorded\nRevision 1.0, 2008-01-19 by Gerd Eichler" F,4 D,2 D,F, | %12
w: Fern hallt es vom|
 B,2 D,F, B,2 C2 |!f! D8 | z2 z!f! B, B,2 A,2 | D8- | D2 D,2 D,2 D,D, | D4 D,4- | %18
w: Schlos- se, Das Wald- horn|ruft,|Das Wald- horn|ruft,|* Es wie- hern die|Ros- se,|
 D,2 D,D, D,2 D,D, | D6 z2 | z2!f! D2 D2 CB, | B,4 B,2 z2 | z2 B,B, B,2 A,G, | G,4 z2!f! G,G, | %24
w: * in die Luft, in die|Luft,|es wie- hern die|Ros- se,|In die Luft, in die|Luft, in die|
 G,4 G,3 G, | F,4 z2!ff! F,F, | F,4 F,3 F, | B,,8 || z2!pp! B,2 B,2 B,B, | B,2 B,B, B,2 B,2 | %30
w: Luft, in die|Luft, in die|Luft, in die|Luft!|Bald Län- der und|Se- en, bald Wol- ken-|
 B,3 B,"^cresc." B,2 B,B, | B,2 B,B, B,2 B,2 |!f! B,4 z4 | z8 | z2!f! F,2 F,2 B,D | %35
w: zug, Bald Län- der und|Se- en, bald Wol- ken-|zug||Tief schim- mernd zu|
 C2 F,F, (F,B,)DB, |"^dim." F,8- | F,8- |!pp! !fermata!F,8 |!f! F,4 D,2 (D,F,) | B,2 D,F, B,2 CC | %41
w: se- hen In schwin ­ deln- dem|Flug,|||Bald Dun- kel *|wie- der Hüllt Rei- ter und|
!f! D8 | z2 z B, B,2 A,A, | D8- | D2 D,2 D,2 D,2 | D4 D,4- | D,2 D,2 D,3 D, | D6 z2 | %48
w: Roß,|Hüllt Rei- ter und|Ross,|* O Lieb', o|Lie- be|* So lass' mich|los,|
 z2!f! D2 D2 (CB,) | B,4 B,2 z2 | z2 B,2 B,2 (A,G,) | G,4 z2!f! G,G, | G,4 G,3 G, | %53
w: O Lieb', o *|Lie- be|So lass mich *|los, lass mich|los, lass' mich|
 F,4 z2!ff! F,F, | F,4 F,3 F, | B,,8 || z2!pp! B,B, B,2 B,B, | B,2 B,B, B,2 B,2 | B,4 B,,2 B,,B,, | %59
w: los, lass mich|los, lass mich|los!|Im- mer wei- ter und|wei- ter die Klän- ge|ziehn, wei- ter und|
 B,,2 B,,B,, B,,2 B,,2 | B,,4 z4 | z8 | z2 z F, F,2 B,D | C2 F,F, (F,B,)DB, | F,8- | F,8- | %66
w: wei- ter die Klän- ge|ziehn,||Durch Wäl- der und|Hei- den, wo- hin * ach, wo-|hin?||
[K:B] !fermata!D7!pp! G | B,4 B,3 B, | B,4 B,4 | B,4 (3B,2 B,2 B,2 | B,8 | %71
w: * Er-|quick * li-|Fri- sche|Süß- schau- ri- ge|Lust!|
"^cresc." D,4 (3F,2 F,2 F,2 | G,4 G,4 | G,4 G,3 G, | F,7!f! F, | B,,4 B,3 B, | B,4 B,4 | %77
w: Hoch flat- tern die|Bü- sche,|Frei schlägt die|Brust. Er-|quick- li- che|Fri- sche|
 B,4 (3B,2 B,2 B,2 | E,8 |!ff! F,4 (3F,2 F,2 F,2 | G,4 C,4 | F,4 F,3 F, | B,,6!p! F,2 | %83
w: Süß- schau- ri- ge|Lust!|Hoch flat- tern die|Bü- sche,|Frei schlägt die|Brust. Er-|
 F,4 F,3 F, | F,8- | F,8 | !fermata!F,7!f! F, | B,4 B,3 B, | B,4 B,4 | B,4 (3B,2 B,2 B,2 | E,8 | %91
w: quick- li- che|Fri-||sche! Er-|quick- li- che|Fri- sche|Süß- schau- ri- ge|Lust!|
!ff! F,4 (3F,2 F,2 F,2 | G,4 C,4 | F,4 F,3 F, | B,,8- | B,,8- | B,,2!pp! B,,B,, B,,2 B,,B,, | %97
w: Hoch flat- tern die|Bü- sche,|Frei schlägt die|Brust.||* Im- mer wei- ter und|
 B,,2 B,,B,, B,,2 B,,2 | B,,4 B,,2 B,,B,, | B,,2 B,,B,, B,,2 B,,2 | B,,8- | B,,2 z2 z4 | %102
w: wei- ter die Klän- ge|ziehn, wei- ter und|wei- ter die Klän- ge|ziehn,||
 z2 z!f!"^cresc." B, B,2 B,2 | (B,4 G,4 | ^E,8- | E,4) z4 |!ff! F,4 (3F,2 F,2 F,2 | G,4 C,4 | %108
w: Die Klän- ge|ziehn, *|||Hoch flat- tern die|Bü- sche|
 F,4 F,3 F, | !fermata!B,,8 |] %110
w: Frei schlägt die|Brust.|

